svgs/sharp-solid/head-side.svg

<svg xmlns="http://www.w3.org/2000/svg" viewBox="0 0 512 512"><!--! Font Awesome Pro 6.6.0 by @fontawesome - https://fontawesome.com License - https://fontawesome.com/license (Commercial License) Copyright 2024 Fonticons, Inc. --><path d="M0 224.3C0 100.4 100.4 0 224.3 0L256 0C358.1 0 441.6 79.7 447.7 180.3L505 252l7 8.8 0 11.2 0 16 0 32-32 0-32 0 0 96 0 32-32 0-96 0 0 32 0 32-32 0L96 512l-32 0 0-32 0-98.8C23 339.3 0 283 0 224.3zm352-.3a32 32 0 1 0 0-64 32 32 0 1 0 0 64z"/></svg>

<svg xmlns="http://www.w3.org/2000/svg" viewBox="0 0 512 512"><!--! Font Awesome Pro 6.4.0 by @fontawesome - https://fontawesome.com License - https://fontawesome.com/license (Commercial License) Copyright 2023 Fonticons, Inc. --><path d="M0 224.3C0 100.4 100.4 0 224.3 0H256C358.1 0 441.6 79.7 447.7 180.3L505 252l7 8.8V272v16 32H480 448v96 32H416 320v32 32H288 96 64V480 381.2C23 339.3 0 283 0 224.3zm352-.3a32 32 0 1 0 0-64 32 32 0 1 0 0 64z"/></svg>
